svgs/syncthing.svg

<svg width="192" height="192" viewBox="0 0 192 192" fill="none" xmlns="http://www.w3.org/2000/svg">
<path d="M161 101.706C160.489 108.102 159.038 114.386 156.695 120.348M109.117 159.923C105.295 160.639 101.417 161 97.5306 161C81.4018 161 65.8739 154.801 54.0828 143.653M35 84.3144C37.7962 69.5923 45.5681 56.3166 56.9797 46.7694C68.3914 37.2223 82.7299 31.9999 97.5306 32C111.276 31.9998 124.653 36.505 135.661 44.8423" stroke="black" stroke-width="12" stroke-linecap="round" stroke-linejoin="round"/>
<path fill-rule="evenodd" clip-rule="evenodd" d="M146.646 145.558C146.646 147.881 145.726 150.11 144.088 151.753C142.45 153.395 140.229 154.318 137.913 154.318C135.597 154.318 133.375 153.395 131.737 151.753C130.1 150.11 129.179 147.881 129.179 145.558C129.179 143.235 130.1 141.006 131.737 139.363C133.375 137.72 135.597 136.797 137.913 136.797C140.229 136.797 142.45 137.72 144.088 139.363C145.726 141.006 146.646 143.235 146.646 145.558ZM164.356 69.4401C164.356 71.7636 163.435 73.9918 161.798 75.6347C160.16 77.2776 157.938 78.2006 155.622 78.2006C153.306 78.2006 151.085 77.2776 149.447 75.6347C147.809 73.9918 146.889 71.7636 146.889 69.4401C146.889 67.1167 147.809 64.8884 149.447 63.2455C151.085 61.6026 153.306 60.6797 155.622 60.6797C157.938 60.6797 160.16 61.6026 161.798 63.2455C163.435 64.8884 164.356 67.1167 164.356 69.4401ZM119.1 104.671C119.1 106.994 118.18 109.223 116.542 110.865C114.904 112.508 112.683 113.431 110.367 113.431C108.051 113.431 105.829 112.508 104.191 110.865C102.554 109.223 101.634 106.994 101.634 104.671C101.634 102.347 102.554 100.119 104.191 98.4763C105.829 96.8334 108.051 95.9104 110.367 95.9104C112.683 95.9104 114.904 96.8334 116.542 98.4763C118.18 100.119 119.1 102.347 119.1 104.671ZM45.1112 115.829C45.1112 118.152 44.1911 120.38 42.5533 122.023C40.9154 123.666 38.6941 124.589 36.3778 124.589C34.0616 124.589 31.8402 123.666 30.2024 122.023C28.5646 120.38 27.6445 118.152 27.6445 115.829C27.6445 113.505 28.5646 111.277 30.2024 109.634C31.8402 107.991 34.0616 107.068 36.3778 107.068C38.6941 107.068 40.9154 107.991 42.5533 109.634C44.1911 111.277 45.1112 113.505 45.1112 115.829ZM155.622 49C150.218 49 145.034 51.1536 141.213 54.9871C137.391 58.8205 135.244 64.0198 135.244 69.4411C135.262 71.9624 135.745 74.4586 136.668 76.8038L122.219 88.0513C118.762 85.5684 114.618 84.2322 110.367 84.2298C105.457 84.2302 100.713 86.0085 97.0064 89.2378C93.2997 92.467 90.8799 96.93 90.1918 101.806L54.8217 107.14C53.177 103.627 50.5691 100.656 47.3029 98.5746C44.0367 96.4934 40.2473 95.388 36.3778 95.3877C30.9733 95.3877 25.7901 97.5413 21.9685 101.375C18.1469 105.208 16 110.407 16 115.829C16 121.25 18.1469 126.449 21.9685 130.283C25.7901 134.116 30.9733 136.27 36.3778 136.27C41.2876 136.269 46.0322 134.491 49.7389 131.261C53.4456 128.032 55.8653 123.568 56.5529 118.692L91.9356 113.357C93.5791 116.869 96.185 119.839 99.4487 121.921C102.712 124.002 106.499 125.109 110.367 125.112C112.436 125.104 114.492 124.779 116.464 124.15L122.174 132.626C119.186 136.27 117.547 140.84 117.535 145.559C117.535 150.98 119.682 156.179 123.504 160.013C127.325 163.846 132.508 166 137.913 166C143.317 166 148.501 163.846 152.322 160.013C156.144 156.179 158.291 150.98 158.291 145.559C158.291 140.138 156.144 134.938 152.322 131.105C148.501 127.271 143.317 125.118 137.913 125.118C135.844 125.125 133.788 125.449 131.816 126.078L126.107 117.602C129.095 113.958 130.733 109.389 130.745 104.671C130.743 102.142 130.273 99.6357 129.359 97.279L143.803 86.0344C147.247 88.52 151.379 89.8652 155.622 89.8822C158.298 89.8822 160.948 89.3535 163.42 88.3262C165.893 87.299 168.139 85.7933 170.031 83.8951C171.924 81.997 173.425 79.7436 174.449 77.2636C175.473 74.7835 176 72.1255 176 69.4411C176 66.7567 175.473 64.0987 174.449 61.6186C173.425 59.1386 171.924 56.8852 170.031 54.9871C168.139 53.0889 165.893 51.5832 163.42 50.556C160.948 49.5287 158.298 49 155.622 49Z" fill="black"/>
</svg>

<svg width="192" height="192" viewBox="0 0 192 192" fill="none" xmlns="http://www.w3.org/2000/svg"><path d="M161 101.706a65.165 65.165 0 0 1-4.305 18.642m-47.578 39.575A62.92 62.92 0 0 1 97.531 161c-16.13 0-31.657-6.199-43.448-17.347M35 84.314c2.796-14.722 10.568-27.997 21.98-37.545C68.39 37.222 82.73 32 97.53 32c13.746 0 27.123 4.505 38.131 12.842" stroke="#000" stroke-width="12" stroke-linecap="round" stroke-linejoin="round"/><path fill-rule="evenodd" clip-rule="evenodd" d="M146.646 145.558c0 2.323-.92 4.552-2.558 6.195a8.722 8.722 0 0 1-6.175 2.565 8.725 8.725 0 0 1-6.176-2.565 8.78 8.78 0 0 1 0-12.39 8.721 8.721 0 0 1 6.176-2.566 8.72 8.72 0 0 1 6.175 2.566 8.775 8.775 0 0 1 2.558 6.195Zm17.71-76.118a8.778 8.778 0 0 1-2.558 6.195 8.722 8.722 0 0 1-6.176 2.566 8.72 8.72 0 0 1-6.175-2.566 8.773 8.773 0 0 1-2.558-6.195c0-2.323.92-4.552 2.558-6.194a8.72 8.72 0 0 1 6.175-2.566c2.316 0 4.538.923 6.176 2.566a8.778 8.778 0 0 1 2.558 6.194ZM119.1 104.671c0 2.323-.92 4.552-2.558 6.194a8.72 8.72 0 0 1-6.175 2.566 8.721 8.721 0 0 1-6.176-2.566 8.775 8.775 0 0 1-2.557-6.194c0-2.324.92-4.552 2.557-6.195a8.722 8.722 0 0 1 6.176-2.566 8.72 8.72 0 0 1 6.175 2.566 8.772 8.772 0 0 1 2.558 6.195Zm-73.989 11.158c0 2.323-.92 4.551-2.558 6.194a8.72 8.72 0 0 1-6.175 2.566 8.72 8.72 0 0 1-6.176-2.566 8.774 8.774 0 0 1-2.558-6.194c0-2.324.92-4.552 2.558-6.195a8.72 8.72 0 0 1 6.176-2.566 8.72 8.72 0 0 1 6.175 2.566 8.774 8.774 0 0 1 2.558 6.195ZM155.622 49a20.345 20.345 0 0 0-14.409 5.987 20.472 20.472 0 0 0-5.969 14.454 20.505 20.505 0 0 0 1.424 7.363L122.219 88.05a20.335 20.335 0 0 0-11.852-3.821 20.34 20.34 0 0 0-13.36 5.008 20.459 20.459 0 0 0-6.815 12.568l-35.37 5.334a20.424 20.424 0 0 0-7.52-8.565 20.332 20.332 0 0 0-10.924-3.187 20.345 20.345 0 0 0-14.41 5.987A20.471 20.471 0 0 0 16 115.829c0 5.421 2.147 10.62 5.968 14.454a20.348 20.348 0 0 0 14.41 5.987 20.342 20.342 0 0 0 13.36-5.009 20.457 20.457 0 0 0 6.815-12.569l35.383-5.335a20.425 20.425 0 0 0 7.513 8.564 20.335 20.335 0 0 0 10.918 3.191 20.323 20.323 0 0 0 6.097-.962l5.71 8.476a20.48 20.48 0 0 0-4.639 12.933c0 5.421 2.147 10.62 5.969 14.454A20.345 20.345 0 0 0 137.913 166a20.347 20.347 0 0 0 14.409-5.987 20.473 20.473 0 0 0 5.969-14.454 20.472 20.472 0 0 0-5.969-14.454 20.343 20.343 0 0 0-14.409-5.987 20.29 20.29 0 0 0-6.097.96l-5.709-8.476a20.476 20.476 0 0 0 4.638-12.931 20.488 20.488 0 0 0-1.386-7.392l14.444-11.245a20.334 20.334 0 0 0 11.819 3.848 20.362 20.362 0 0 0 14.409-5.987 20.434 20.434 0 0 0 4.418-6.631 20.498 20.498 0 0 0 0-15.645 20.434 20.434 0 0 0-4.418-6.632A20.362 20.362 0 0 0 155.622 49Z" fill="#000"/></svg>
